X:1
T:Angmering
T:Angmering
T:Public Domain, Courtesy of the Cyber Hymnal
T:Public Domain, Courtesy of the Cyber Hymnal
Z:Public Domain, Courtesy of the Cyber Hymnal
%%score { ( 1 2 ) ( 3 4 ) }
L:1/8
Q:1/4=112
M:1/4
K:E
V:1 treble nm="P1"
V:2 treble 
V:3 bass nm="P2"
V:4 bass 
V:1
"^Editor: John Henry Fowler""^( Revision: 11- 19 - 2007 )" G2 |[M:4/4] E2 G2 c2 B2 | %2
 A2"^( 1904 )" G2 F2 G2 | ^A2"^Charles Hubert Hastings Parry" B2 c2 dc |"^( 1843 - 1918 )" B6 B2 | %5
 G2 B2 e2 d2 | c2 c2 B2 c2 | A2 G2 A2 F2 |[M:3/4] E6 |] %9
V:2
 E2 |[M:4/4] E2 E2 G2 F2 | F2 B,C D2 E2 | E2 F2 G2 FE | D6 F2 | E2 F2 E2 F2 | G2 F2 F2 C2 | %7
 C2 ^E2 F=E D2 |[M:3/4] E6 |] %9
V:3
 B,2 |[M:4/4] B,2 B,2 E2 D2 | CD E2 B,2 B,2 | C2 B,2 B,2 ^A,2 | B,6 D2 | E2 DC B,2 B,2 | %6
 B,2 A,2 B,2 G,2 | A,2 C2 C2 B,A, |[M:3/4] G,6 |] %9
V:4
 E,2 |[M:4/4] G,2 E,2 C,2 D,E, | F,2 G,A, B,2 E,2 | C,2 D,2 E,2 F,2 | B,,6 B,2 | C2 B,A, G,2 F,2 | %6
 E,2 F,E, D,2 ^E,2 | F,2 C,2 A,,2 B,,2 |[M:3/4] E,6 |] %9

